X: 22748
T: Land O' The Leal, The
R: reel
M: 4/4
K: Cmajor
"C/E"G,4 G,3 E,|"C/G"G,3 A, C3 B,|"Am7"~A,4 {G,A,B,}A,3 G,|A,3 B, C2 D2|
"C/E"~E4 D4|C4 {DEF}E3D|"Am7"C4 A,3 G,|"C/G"G,8|
"Em7/D"E4 E3 D|E3 F G3 E|"Dm7/C"~D4 {CDE}D3 C|D3 E F3 !slide!A|
"Cadd9"~G4 D4|C4 {DEF}E3 D|"C/G"C4 A,3 G,|G,8||

